icons/showSelected-f64b58.svg

<svg xmlns="http://www.w3.org/2000/svg" xmlns:xlink="http://www.w3.org/1999/xlink" width="44" height="37" viewBox="0 0 44 37">
    <defs>
        <circle id="b" cx="24" cy="13.575" r="12.575"/>
        <filter id="a" width="195.4%" height="195.4%" x="-47.7%" y="-47.7%" filterUnits="objectBoundingBox">
            <feMorphology in="SourceAlpha" operator="dilate" radius="2" result="shadowSpreadOuter1"/>
            <feOffset in="shadowSpreadOuter1" result="shadowOffsetOuter1"/>
            <feMorphology in="SourceAlpha" radius="1" result="shadowInner"/>
            <feOffset in="shadowInner" result="shadowInner"/>
            <feComposite in="shadowOffsetOuter1" in2="shadowInner" operator="out" result="shadowOffsetOuter1"/>
            <feGaussianBlur in="shadowOffsetOuter1" result="shadowBlurOuter1" stdDeviation="3"/>
            <feColorMatrix in="shadowBlurOuter1" values="0 0 0 0 0.231372549 0 0 0 0 0.709803922 0 0 0 0 0.949019608 0 0 0 0.700092876 0"/>
        </filter>
    </defs>
    <g fill="none" fill-rule="evenodd">
        <g opacity=".7" transform="translate(-.056 4.925)">
            <use fill="#000" filter="url(#a)" xlink:href="#b"/>
            <circle cx="24" cy="13.575" r="13.575" stroke="#656869" stroke-width="2"/>
            <use stroke="#F64B58" stroke-width="3" xlink:href="#b"/>
        </g>
        <g transform="translate(0 5)">
            <circle cx="24.206" cy="13.034" r="8.845" fill="#F64B58"/>
            <path fill="#656869" d="M18.24 6.137c.019-.152.046-.303.078-.451.105-.391.273-.807.478-1.162a3.713 3.713 0 0 1 1.766-1.585 4.155 4.155 0 0 1 1.628-.326c.268 0 .537.025.8.073.914.134 1.723.686 2.255 1.472a9.211 9.211 0 0 0-1.176-.076c-2.157 0-4.194.731-5.83 2.055M22.36 0c-.983 0-1.958.211-2.82.61-1.205.542-2.233 1.51-2.882 2.724a7.49 7.49 0 0 0-.677 1.816 7.68 7.68 0 0 0-.127 1.96c.032.479.11.973.233 1.476l-.355-.153L3.065 3.02 0 1.711 1.942 4.42l6.537 9.114.501.7.737-.445 2.458-1.486c.899.373 1.753.687 2.585.952v.138c0 5.134 4.176 9.31 9.31 9.31 5.132 0 9.31-4.176 9.31-9.31a9.252 9.252 0 0 0-4.725-8.094 6.667 6.667 0 0 0-1.65-3.333 5.974 5.974 0 0 0-1.64-1.264 6.41 6.41 0 0 0-1.938-.62A7.225 7.225 0 0 0 22.359 0m-4.92 8.282a8.355 8.355 0 0 1 6.63-3.269 8.37 8.37 0 0 1 2.689.448c-.327-1.81-1.729-3.417-3.601-3.691a5.323 5.323 0 0 0-.967-.088c-.678 0-1.36.13-1.985.398-.929.385-1.708 1.096-2.218 1.981a6.022 6.022 0 0 0-.578 1.423 6.148 6.148 0 0 0-.14 1.54c.015.421.08.841.17 1.258M22.36.931c.31 0 .62.024.926.07.567.088 1.126.26 1.65.526.528.274.991.64 1.388 1.071a5.742 5.742 0 0 1 1.46 3.146c.006.05.003.1.008.15 2.758 1.372 4.657 4.21 4.657 7.498a8.38 8.38 0 0 1-16.758 0c0-.276.015-.548.042-.817A30.923 30.923 0 0 1 12.1 11.26l-2.865 1.73-6.536-9.113L15.365 9.29l-1.677 1.012c.76.327 1.53.626 2.306.881.24-.876.61-1.696 1.101-2.433a7.872 7.872 0 0 1-.313-1.701 6.595 6.595 0 0 1 .105-1.686c.13-.557.323-1.086.592-1.59.536-1.001 1.404-1.848 2.452-2.319a5.787 5.787 0 0 1 2.428-.523"/>
            <path fill="#656869" d="M22.457.814V.627c.327 0 .657.024.983.075.627.097 1.22.286 1.765.563.55.285 1.05.672 1.489 1.148a6.123 6.123 0 0 1 1.555 3.349 6.355 6.355 0 0 1-.607 3.658c-.507 1.045-1.347 1.994-2.427 2.741a8.394 8.394 0 0 1-3.336 1.381 9.61 9.61 0 0 1-1.086.133c.387.476.809.96 1.26 1.44a34.956 34.956 0 0 0 4.795 4.203l-.428.609a35.758 35.758 0 0 1-5.04-4.155 26.615 26.615 0 0 1-1.886-2.092c-.411-.018-.786-.05-1.14-.097-2.331-.325-4.483-1.14-6.126-1.837l-2.703 1.631-.294.178-.201-.28-6.536-9.113-.776-1.083 1.225.524 12.666 5.413.669.284-.622.377-1.05.633c1.202.488 2.277.833 3.295 1.06a13.72 13.72 0 0 1-.476-.908c-.538-1.141-.848-2.258-.917-3.321a7.013 7.013 0 0 1 .114-1.795c.14-.597.35-1.163.626-1.68.59-1.105 1.525-1.987 2.625-2.481a6.184 6.184 0 0 1 2.584-.558v.187zm-3.144 10.79c.35.038.696.057 1.028.057.271 0 .54-.013.798-.038 1.144-.113 2.157-.462 3.018-1.042.849-.553 1.483-1.221 1.882-1.985.43-.804.613-1.737.515-2.635-.17-1.884-1.61-3.499-3.366-3.757a5.01 5.01 0 0 0-.9-.082c-.641 0-1.277.127-1.842.37-.837.347-1.56.994-2.037 1.822-.228.398-.416.86-.538 1.318-.105.471-.15.971-.132 1.446.032.912.274 1.892.717 2.912.233.524.514 1.054.857 1.614z" opacity=".435"/>
            <path fill="#F9E915" d="M18.003 10.059c-.424-.972-.713-2.004-.75-3.048a6.16 6.16 0 0 1 .141-1.54c.13-.492.325-.981.578-1.423.51-.885 1.29-1.595 2.219-1.982.922-.395 1.968-.49 2.95-.309 2.01.295 3.493 2.121 3.671 4.09a4.945 4.945 0 0 1-.558 2.843c-.455.87-1.17 1.577-2.007 2.123-.955.643-2.048.988-3.185 1.1a9.411 9.411 0 0 1-2.083-.041 14.333 14.333 0 0 1-.976-1.813m3.696 3.036a8.03 8.03 0 0 0 3.189-1.32c.94-.65 1.788-1.532 2.306-2.598.527-1.06.734-2.279.573-3.445a5.742 5.742 0 0 0-1.46-3.146 5.093 5.093 0 0 0-1.387-1.073A5.488 5.488 0 0 0 23.27.99a5.893 5.893 0 0 0-3.354.453c-1.047.47-1.917 1.316-2.453 2.318a6.533 6.533 0 0 0-.591 1.59 6.597 6.597 0 0 0-.106 1.685c.075 1.122.415 2.196.882 3.188.265.552.568 1.079.896 1.588-.019-.004-.04-.004-.058-.008-1.64-.275-3.245-.836-4.812-1.515l1.675-1.012L2.683 3.864l6.536 9.114 2.866-1.73c1.968.843 4.018 1.58 6.207 1.885.42.056.846.087 1.275.1.61.773 1.274 1.502 1.964 2.195a35.257 35.257 0 0 0 4.986 4.11 35.252 35.252 0 0 1-4.847-4.248 26.195 26.195 0 0 1-1.74-2.043c.59 0 1.181-.045 1.769-.152"/>
        </g>
    </g>
</svg>

<?xml version="1.0" encoding="UTF-8" standalone="no"?>
<svg
   xmlns:dc="http://purl.org/dc/elements/1.1/"
   xmlns:cc="http://creativecommons.org/ns#"
   xmlns:rdf="http://www.w3.org/1999/02/22-rdf-syntax-ns#"
   xmlns:svg="http://www.w3.org/2000/svg"
   xmlns="http://www.w3.org/2000/svg"
   xmlns:xlink="http://www.w3.org/1999/xlink"
   xmlns:sodipodi="http://sodipodi.sourceforge.net/DTD/sodipodi-0.dtd"
   xmlns:inkscape="http://www.inkscape.org/namespaces/inkscape"
   width="48"
   height="48"
   viewBox="0 0 48 48"
   version="1.1"
   id="svg40"
   sodipodi:docname="showSelected-f64b58.svg"
   inkscape:version="0.92.4 (5da689c313, 2019-01-14)">
  <metadata
     id="metadata44">
    <rdf:RDF>
      <cc:Work
         rdf:about="">
        <dc:format>image/svg+xml</dc:format>
        <dc:type
           rdf:resource="http://purl.org/dc/dcmitype/StillImage" />
        <dc:title></dc:title>
      </cc:Work>
    </rdf:RDF>
  </metadata>
  <sodipodi:namedview
     pagecolor="#ffffff"
     bordercolor="#666666"
     borderopacity="1"
     objecttolerance="10"
     gridtolerance="10"
     guidetolerance="10"
     inkscape:pageopacity="0"
     inkscape:pageshadow="2"
     inkscape:window-width="1920"
     inkscape:window-height="1017"
     id="namedview42"
     showgrid="false"
     inkscape:zoom="6.3783784"
     inkscape:cx="22"
     inkscape:cy="18.5"
     inkscape:window-x="-8"
     inkscape:window-y="-8"
     inkscape:window-maximized="1"
     inkscape:current-layer="svg40" />
  <defs
     id="defs18">
    <circle
       id="b"
       cx="24"
       cy="13.575"
       r="12.575" />
    <filter
       id="a"
       width="1.954"
       height="1.954"
       x="-0.477"
       y="-0.477"
       filterUnits="objectBoundingBox">
      <feMorphology
         in="SourceAlpha"
         operator="dilate"
         radius="2"
         result="shadowSpreadOuter1"
         id="feMorphology3" />
      <feOffset
         in="shadowSpreadOuter1"
         result="shadowOffsetOuter1"
         id="feOffset5" />
      <feMorphology
         in="SourceAlpha"
         radius="1"
         result="shadowInner"
         id="feMorphology7" />
      <feOffset
         in="shadowInner"
         result="shadowInner"
         id="feOffset9" />
      <feComposite
         in="shadowOffsetOuter1"
         in2="shadowInner"
         operator="out"
         result="shadowOffsetOuter1"
         id="feComposite11" />
      <feGaussianBlur
         in="shadowOffsetOuter1"
         result="shadowBlurOuter1"
         stdDeviation="3"
         id="feGaussianBlur13" />
      <feColorMatrix
         in="shadowBlurOuter1"
         values="0 0 0 0 0.231372549 0 0 0 0 0.709803922 0 0 0 0 0.949019608 0 0 0 0.700092876 0"
         id="feColorMatrix15" />
    </filter>
  </defs>
  <g
     id="g38"
     style="fill:none;fill-rule:evenodd"
     transform="translate(0.056,5.5000002)">
    <g
       transform="translate(-0.056,4.925)"
       id="g26"
       style="opacity:0.7">
      <use
         xlink:href="#b"
         id="use20"
         style="fill:#000000;filter:url(#a)"
         x="0"
         y="0"
         width="100%"
         height="100%" />
      <circle
         cx="24"
         cy="13.575"
         r="13.575"
         id="circle22"
         style="stroke:#656869;stroke-width:2" />
      <use
         xlink:href="#b"
         id="use24"
         style="stroke:#f64b58;stroke-width:3"
         x="0"
         y="0"
         width="100%"
         height="100%" />
    </g>
    <g
       transform="translate(0,5)"
       id="g36">
      <circle
         cx="24.205999"
         cy="13.034"
         r="8.8450003"
         id="circle28"
         style="fill:#f64b58" />
      <path
         d="M 18.24,6.137 C 18.259,5.985 18.286,5.834 18.318,5.686 18.423,5.295 18.591,4.879 18.796,4.524 A 3.713,3.713 0 0 1 20.562,2.939 4.155,4.155 0 0 1 22.19,2.613 c 0.268,0 0.537,0.025 0.8,0.073 0.914,0.134 1.723,0.686 2.255,1.472 A 9.211,9.211 0 0 0 24.069,4.082 c -2.157,0 -4.194,0.731 -5.83,2.055 M 22.36,0 C 21.377,0 20.402,0.211 19.54,0.61 18.335,1.152 17.307,2.12 16.658,3.334 A 7.49,7.49 0 0 0 15.981,5.15 7.68,7.68 0 0 0 15.854,7.11 c 0.032,0.479 0.11,0.973 0.233,1.476 L 15.732,8.433 3.065,3.02 0,1.711 1.942,4.42 l 6.537,9.114 0.501,0.7 0.737,-0.445 2.458,-1.486 c 0.899,0.373 1.753,0.687 2.585,0.952 v 0.138 c 0,5.134 4.176,9.31 9.31,9.31 5.132,0 9.31,-4.176 9.31,-9.31 A 9.252,9.252 0 0 0 28.655,5.299 6.667,6.667 0 0 0 27.005,1.966 5.974,5.974 0 0 0 25.365,0.702 6.41,6.41 0 0 0 23.427,0.082 7.225,7.225 0 0 0 22.359,0 m -4.92,8.282 a 8.355,8.355 0 0 1 6.63,-3.269 8.37,8.37 0 0 1 2.689,0.448 C 26.431,3.651 25.029,2.044 23.157,1.77 A 5.323,5.323 0 0 0 22.19,1.682 c -0.678,0 -1.36,0.13 -1.985,0.398 -0.929,0.385 -1.708,1.096 -2.218,1.981 a 6.022,6.022 0 0 0 -0.578,1.423 6.148,6.148 0 0 0 -0.14,1.54 c 0.015,0.421 0.08,0.841 0.17,1.258 M 22.36,0.931 c 0.31,0 0.62,0.024 0.926,0.07 0.567,0.088 1.126,0.26 1.65,0.526 0.528,0.274 0.991,0.64 1.388,1.071 a 5.742,5.742 0 0 1 1.46,3.146 c 0.006,0.05 0.003,0.1 0.008,0.15 2.758,1.372 4.657,4.21 4.657,7.498 a 8.38,8.38 0 0 1 -16.758,0 c 0,-0.276 0.015,-0.548 0.042,-0.817 A 30.923,30.923 0 0 1 12.1,11.26 L 9.235,12.99 2.699,3.877 15.365,9.29 13.688,10.302 c 0.76,0.327 1.53,0.626 2.306,0.881 0.24,-0.876 0.61,-1.696 1.101,-2.433 A 7.872,7.872 0 0 1 16.782,7.049 6.595,6.595 0 0 1 16.887,5.363 c 0.13,-0.557 0.323,-1.086 0.592,-1.59 0.536,-1.001 1.404,-1.848 2.452,-2.319 a 5.787,5.787 0 0 1 2.428,-0.523"
         id="path30"
         inkscape:connector-curvature="0"
         style="fill:#656869" />
      <path
         d="M 22.457,0.814 V 0.627 c 0.327,0 0.657,0.024 0.983,0.075 0.627,0.097 1.22,0.286 1.765,0.563 0.55,0.285 1.05,0.672 1.489,1.148 a 6.123,6.123 0 0 1 1.555,3.349 6.355,6.355 0 0 1 -0.607,3.658 c -0.507,1.045 -1.347,1.994 -2.427,2.741 a 8.394,8.394 0 0 1 -3.336,1.381 9.61,9.61 0 0 1 -1.086,0.133 c 0.387,0.476 0.809,0.96 1.26,1.44 a 34.956,34.956 0 0 0 4.795,4.203 L 26.42,19.927 A 35.758,35.758 0 0 1 21.38,15.772 26.615,26.615 0 0 1 19.494,13.68 c -0.411,-0.018 -0.786,-0.05 -1.14,-0.097 -2.331,-0.325 -4.483,-1.14 -6.126,-1.837 L 9.525,13.377 9.231,13.555 9.03,13.275 2.494,4.162 1.718,3.079 2.943,3.603 15.609,9.016 16.278,9.3 15.656,9.677 14.606,10.31 c 1.202,0.488 2.277,0.833 3.295,1.06 A 13.72,13.72 0 0 1 17.425,10.462 C 16.887,9.321 16.577,8.204 16.508,7.141 a 7.013,7.013 0 0 1 0.114,-1.795 c 0.14,-0.597 0.35,-1.163 0.626,-1.68 0.59,-1.105 1.525,-1.987 2.625,-2.481 a 6.184,6.184 0 0 1 2.584,-0.558 z m -3.144,10.79 c 0.35,0.038 0.696,0.057 1.028,0.057 0.271,0 0.54,-0.013 0.798,-0.038 1.144,-0.113 2.157,-0.462 3.018,-1.042 0.849,-0.553 1.483,-1.221 1.882,-1.985 0.43,-0.804 0.613,-1.737 0.515,-2.635 -0.17,-1.884 -1.61,-3.499 -3.366,-3.757 a 5.01,5.01 0 0 0 -0.9,-0.082 c -0.641,0 -1.277,0.127 -1.842,0.37 -0.837,0.347 -1.56,0.994 -2.037,1.822 -0.228,0.398 -0.416,0.86 -0.538,1.318 -0.105,0.471 -0.15,0.971 -0.132,1.446 0.032,0.912 0.274,1.892 0.717,2.912 0.233,0.524 0.514,1.054 0.857,1.614 z"
         id="path32"
         inkscape:connector-curvature="0"
         style="opacity:0.43500001;fill:#656869" />
      <path
         d="M 18.003,10.059 C 17.579,9.087 17.29,8.055 17.253,7.011 a 6.16,6.16 0 0 1 0.141,-1.54 c 0.13,-0.492 0.325,-0.981 0.578,-1.423 0.51,-0.885 1.29,-1.595 2.219,-1.982 0.922,-0.395 1.968,-0.49 2.95,-0.309 2.01,0.295 3.493,2.121 3.671,4.09 A 4.945,4.945 0 0 1 26.254,8.69 c -0.455,0.87 -1.17,1.577 -2.007,2.123 -0.955,0.643 -2.048,0.988 -3.185,1.1 a 9.411,9.411 0 0 1 -2.083,-0.041 14.333,14.333 0 0 1 -0.976,-1.813 m 3.696,3.036 a 8.03,8.03 0 0 0 3.189,-1.32 c 0.94,-0.65 1.788,-1.532 2.306,-2.598 0.527,-1.06 0.734,-2.279 0.573,-3.445 A 5.742,5.742 0 0 0 26.307,2.586 5.093,5.093 0 0 0 24.92,1.513 5.488,5.488 0 0 0 23.27,0.99 5.893,5.893 0 0 0 19.916,1.443 c -1.047,0.47 -1.917,1.316 -2.453,2.318 a 6.533,6.533 0 0 0 -0.591,1.59 6.597,6.597 0 0 0 -0.106,1.685 c 0.075,1.122 0.415,2.196 0.882,3.188 0.265,0.552 0.568,1.079 0.896,1.588 -0.019,-0.004 -0.04,-0.004 -0.058,-0.008 -1.64,-0.275 -3.245,-0.836 -4.812,-1.515 L 15.349,9.277 2.683,3.864 l 6.536,9.114 2.866,-1.73 c 1.968,0.843 4.018,1.58 6.207,1.885 0.42,0.056 0.846,0.087 1.275,0.1 0.61,0.773 1.274,1.502 1.964,2.195 a 35.257,35.257 0 0 0 4.986,4.11 35.252,35.252 0 0 1 -4.847,-4.248 26.195,26.195 0 0 1 -1.74,-2.043 c 0.59,0 1.181,-0.045 1.769,-0.152"
         id="path34"
         inkscape:connector-curvature="0"
         style="fill:#f9e915" />
    </g>
  </g>
</svg>
